X:9
T:Mrs. Fraser of Lovat's Strathspey
S:Petrie's Third Collection of Strathspey Reels and Country Dances &c.
Z:Steve Wyrick <sjwyrick'at'gmail'dot'com>, 7/30/05
N:Petrie's Third Collection, page 5
L:1/8
M:C
R:Strathspey
K:Am
"^Slow"
A|E<A,E>D E<A,A,>C|B,G E/D/C/B,/ D<G,G,>B,|E<A,E>D E<A,TA,>C|DE/F/ E/D/C/B,/ CA,A,:|B
A<ac<a A<ac<A|G<gB<gG<gd<B|A<ac<a A<ae<c|B/c/d/B/ e/d/c/B/ c<AA<B|
A<ac<a A<ac<A|G<gB<g G<gd<B|A/B/c/A/ B/c/d/B/ c/d/e/c/ d/e/f/d/|eE e/d/c/B/ cAA|]
